X:11232
T:Morton's Reel
M:4/4
L:1/8
K:G
D2|GBGB AcAc|BcdB G2 AB|cAcA BGBG|ABAF GFED|!
GBGB AcAc|BcdB c2 Bc|dgfa gedc|B2 G2 G2:|!
|:GA|Be e2 dB B2|Be e2 dB B2|eaaa a2 e2|ABAF GFED|!
GBGB AcAc|BcdB c2 Bc|dgfa gedc|B2 G2 G2:|!
